material/.icons/material/contactless-payment.svg

<svg xmlns="http://www.w3.org/2000/svg" viewBox="0 0 24 24"><path d="M16.79 23c-.42-.17-.72-.55-.79-1-.05-.26 0-.44.4-1.16 1.5-2.7 2.27-5.75 2.23-8.84.04-3-.69-5.93-2.13-8.56-.21-.44-.4-.86-.56-1.31.06-.38.25-.73.56-.94.45-.24 1-.19 1.41.09.28.36.52.72.72 1.14A21.4 21.4 0 0120.8 9c.23 1.81.26 3.65.09 5.47-.31 2.34-1 4.6-2.06 6.71-.64 1.28-1 1.82-1.38 1.82h-.66m-4.36-2.21c-.57-.16-.93-.74-.81-1.32 0-.12.31-.67.59-1.23 1.18-2.27 1.69-4.83 1.46-7.38-.14-1.83-.67-3.61-1.54-5.22-.63-1.26-.67-1.46-.3-2 .44-.49 1.17-.56 1.71-.14.72 1.06 1.29 2.22 1.71 3.44 1.28 3.79 1.08 7.92-.56 11.56-.84 1.89-1.43 2.5-2.26 2.24v.05m-4.5-2.23a1.31 1.31 0 01-.73-.86c0-.2 0-.46.45-1.26a8.986 8.986 0 000-8.68C7 6.5 7 6.24 7.53 5.76c.19-.22.47-.33.77-.29.64 0 1 .31 1.54 1.44A10.51 10.51 0 0111.12 12c.04 1.81-.4 3.61-1.27 5.2-.54 1.05-.81 1.3-1.35 1.39-.19.02-.39 0-.57-.09v.06m-4.21-2.13c-.33-.16-.59-.43-.72-.78-.1-.35 0-.65.4-1.29.5-.68.74-1.52.69-2.36.07-.85-.16-1.69-.65-2.39A6.11 6.11 0 013 8.82c-.11-.63.31-1.23 1-1.35.54-.1.92.13 1.42.89a6.619 6.619 0 010 7.27c-.51.77-1.09 1-1.69.8h-.01z"/></svg>

<?xml version="1.0" encoding="UTF-8"?><!DOCTYPE svg PUBLIC "-//W3C//DTD SVG 1.1//EN" "http://www.w3.org/Graphics/SVG/1.1/DTD/svg11.dtd"><svg xmlns="http://www.w3.org/2000/svg" xmlns:xlink="http://www.w3.org/1999/xlink" version="1.1" id="mdi-contactless-payment" width="24" height="24" viewBox="0 0 24 24"><path d="M16.79,23C16.37,22.83 16.07,22.45 16,22C15.95,21.74 16,21.56 16.4,20.84C17.9,18.14 18.67,15.09 18.63,12C18.67,9 17.94,6.07 16.5,3.44C16.29,3 16.1,2.58 15.94,2.13C16,1.75 16.19,1.4 16.5,1.19C16.95,0.95 17.5,1 17.91,1.28C18.19,1.64 18.43,2 18.63,2.42C19.71,4.5 20.44,6.7 20.8,9C21.03,10.81 21.06,12.65 20.89,14.47C20.58,16.81 19.89,19.07 18.83,21.18C18.19,22.46 17.83,23 17.45,23C17.37,23 17.28,23 17.2,23C17.06,23 16.93,23 16.79,23V23M12.43,20.79C11.86,20.63 11.5,20.05 11.62,19.47C11.62,19.35 11.93,18.8 12.21,18.24C13.39,15.97 13.9,13.41 13.67,10.86C13.53,9.03 13,7.25 12.13,5.64C11.5,4.38 11.46,4.18 11.83,3.64C12.27,3.15 13,3.08 13.54,3.5C14.26,4.56 14.83,5.72 15.25,6.94C16.53,10.73 16.33,14.86 14.69,18.5C13.85,20.39 13.26,21 12.43,20.74V20.79M7.93,18.56C7.57,18.4 7.3,18.08 7.2,17.7C7.2,17.5 7.2,17.24 7.65,16.44C9.14,13.74 9.14,10.46 7.65,7.76C7,6.5 7,6.24 7.53,5.76C7.72,5.54 8,5.43 8.3,5.47C8.94,5.47 9.3,5.78 9.84,6.91C10.69,8.47 11.13,10.22 11.12,12C11.16,13.81 10.72,15.61 9.85,17.2C9.31,18.25 9.04,18.5 8.5,18.59C8.31,18.61 8.11,18.59 7.93,18.5V18.56M3.72,16.43C3.39,16.27 3.13,16 3,15.65C2.9,15.3 3,15 3.4,14.36C3.9,13.68 4.14,12.84 4.09,12C4.16,11.15 3.93,10.31 3.44,9.61C3.27,9.36 3.13,9.09 3,8.82C2.89,8.19 3.31,7.59 4,7.47C4.54,7.37 4.92,7.6 5.42,8.36C6.87,10.57 6.87,13.42 5.42,15.63C4.91,16.4 4.33,16.63 3.73,16.43H3.72Z" /></svg>
